static/fonts/fa/microscope.svg

<svg xmlns="http://www.w3.org/2000/svg" viewBox="0 0 512 512"><!-- Font Awesome Free 5.15.4 by @fontawesome - https://fontawesome.com License - https://fontawesome.com/license/free (Icons: CC BY 4.0, Fonts: SIL OFL 1.1, Code: MIT License) --><path d="M160 320h12v16c0 8.84 7.16 16 16 16h40c8.84 0 16-7.16 16-16v-16h12c17.67 0 32-14.33 32-32V64c0-17.67-14.33-32-32-32V16c0-8.84-7.16-16-16-16h-64c-8.84 0-16 7.16-16 16v16c-17.67 0-32 14.33-32 32v224c0 17.67 14.33 32 32 32zm304 128h-1.29C493.24 413.99 512 369.2 512 320c0-105.88-86.12-192-192-192v64c70.58 0 128 57.42 128 128s-57.42 128-128 128H48c-26.51 0-48 21.49-48 48 0 8.84 7.16 16 16 16h480c8.84 0 16-7.16 16-16 0-26.51-21.49-48-48-48zm-360-32h208c4.42 0 8-3.58 8-8v-16c0-4.42-3.58-8-8-8H104c-4.42 0-8 3.58-8 8v16c0 4.42 3.58 8 8 8z"/></svg>

<svg xmlns="http://www.w3.org/2000/svg" viewBox="0 0 512 512"><!--! Font Awesome Free 6.0.0-beta3 by @fontawesome - https://fontawesome.com License - https://fontawesome.com/license/free (Icons: CC BY 4.0, Fonts: SIL OFL 1.1, Code: MIT License) Copyright 2021 Fonticons, Inc. --><path d="M160 320h12v16c0 8.875 7.125 16 16 16h40c8.875 0 16-7.125 16-16V320H256c17.62 0 32-14.38 32-32V64c0-17.62-14.38-32-32-32V16C256 7.125 248.9 0 240 0h-64C167.1 0 160 7.125 160 16V32C142.4 32 128 46.38 128 64v224C128 305.6 142.4 320 160 320zM464 448h-1.25C493.2 414 512 369.2 512 320c0-105.9-86.13-192-192-192v64c70.63 0 128 57.38 128 128s-57.38 128-128 128H48C21.5 448 0 469.5 0 496C0 504.9 7.125 512 16 512h480c8.875 0 16-7.125 16-16C512 469.5 490.5 448 464 448zM104 416h208c4.375 0 8-3.625 8-8v-16c0-4.375-3.625-8-8-8h-208C99.63 384 96 387.6 96 392v16C96 412.4 99.63 416 104 416z"/></svg>
